resources/leiningen/new/npm_reagent/public/img/npm-reagent-logo.svg

<?xml version="1.0" encoding="UTF-8" standalone="no"?>
<!--
The CLJS logo is released under a Creative Commons CC0 license: https://creativecommons.org/publicdomain/zero/1.0/
For more information about the logo, please see: https://github.com/cljs/logo
-->

<svg
   xmlns:dc="http://purl.org/dc/elements/1.1/"
   xmlns:cc="http://creativecommons.org/ns#"
   xmlns:rdf="http://www.w3.org/1999/02/22-rdf-syntax-ns#"
   xmlns:svg="http://www.w3.org/2000/svg"
   xmlns="http://www.w3.org/2000/svg"
   xmlns:sodipodi="http://sodipodi.sourceforge.net/DTD/sodipodi-0.dtd"
   xmlns:inkscape="http://www.inkscape.org/namespaces/inkscape"
   width="438px"
   height="438px"
   viewBox="0 0 438 438"
   version="1.1"
   id="svg3859"
   sodipodi:docname="npm-reagent-logo.svg"
   inkscape:version="0.92.2 5c3e80d, 2017-08-06">
  <metadata
     id="metadata3865">
    <rdf:RDF>
      <cc:Work
         rdf:about="">
        <dc:format>image/svg+xml</dc:format>
        <dc:type
           rdf:resource="http://purl.org/dc/dcmitype/StillImage" />
        <dc:title></dc:title>
      </cc:Work>
    </rdf:RDF>
  </metadata>
  <defs
     id="defs3863" />
  <sodipodi:namedview
     pagecolor="#ffffff"
     bordercolor="#666666"
     borderopacity="1"
     objecttolerance="10"
     gridtolerance="10"
     guidetolerance="10"
     inkscape:pageopacity="0"
     inkscape:pageshadow="2"
     inkscape:window-width="1535"
     inkscape:window-height="971"
     id="namedview3861"
     showgrid="false"
     inkscape:zoom="1.8082192"
     inkscape:cx="143.23485"
     inkscape:cy="219"
     inkscape:window-x="0"
     inkscape:window-y="0"
     inkscape:window-maximized="0"
     inkscape:current-layer="svg3859" />
  <g
     id="g3839"
     transform="matrix(0.88149859,0,0,0.83587488,104.53741,91.215903)">
    <path
       style="fill:#96ca4b"
       inkscape:connector-curvature="0"
       id="path3831"
       d="m 39,119.6 c -12.7,0 -22.3,-3.7 -28.9,-11.1 -6.6,-7.4 -9.9,-18 -9.9,-31.8 0,-14.1 3.4,-24.9 10.3,-32.5 6.9,-7.6 16.8,-11.4 29.9,-11.4 8.8,0 16.8,1.6 23.8,4.9 L 58.8,52 c -7.5,-2.9 -13.7,-4.4 -18.6,-4.4 -14.5,0 -21.7,9.6 -21.7,28.8 0,9.4 1.8,16.4 5.4,21.2 3.6,4.7 8.9,7.1 15.9,7.1 7.9,0 15.4,-2 22.5,-5.9 v 15.5 c -3.2,1.9 -6.6,3.2 -10.2,4 -3.6,0.9 -8,1.3 -13.1,1.3 z" />
    <path
       style="fill:#96ca4b"
       inkscape:connector-curvature="0"
       id="path3833"
       d="M 111.4,118.1 H 93.6 V 0.3 h 17.8 z" />
    <path
       style="fill:#5f7fbf"
       inkscape:connector-curvature="0"
       id="path3835"
       d="m 139.9,155.3 c -5.3,0 -9.8,-0.6 -13.3,-1.9 v -14.1 c 3.4,0.9 6.9,1.4 10.5,1.4 7.6,0 11.4,-4.3 11.4,-12.9 V 34.3 h 17.8 V 129 c 0,8.6 -2.3,15.2 -6.8,19.6 -4.6,4.5 -11.1,6.7 -19.6,6.7 z m 7.5,-143.1 c 0,-3.2 0.9,-5.6 2.6,-7.3 1.7,-1.7 4.2,-2.6 7.5,-2.6 3.1,0 5.6,0.9 7.3,2.6 1.7,1.7 2.6,4.2 2.6,7.3 0,3 -0.9,5.4 -2.6,7.2 -1.7,1.7 -4.2,2.6 -7.3,2.6 -3.2,0 -5.7,-0.9 -7.5,-2.6 -1.8,-1.8 -2.6,-4.2 -2.6,-7.2 z" />
    <path
       style="fill:#5f7fbf"
       inkscape:connector-curvature="0"
       id="path3837"
       d="m 259.5,94.3 c 0,8.2 -3,14.4 -8.9,18.8 -6,4.4 -14.5,6.5 -25.6,6.5 -11.2,0 -20.1,-1.7 -26.9,-5.1 V 99.1 c 9.8,4.5 19,6.8 27.5,6.8 10.9,0 16.4,-3.3 16.4,-9.9 0,-2.1 -0.6,-3.9 -1.8,-5.3 -1.2,-1.4 -3.2,-2.9 -6,-4.4 -2.8,-1.5 -6.6,-3.2 -11.6,-5.1 C 213,77.5 206.4,73.7 203,70 c -3.4,-3.7 -5.1,-8.6 -5.1,-14.5 0,-7.2 2.9,-12.7 8.7,-16.7 5.8,-4 13.6,-5.9 23.6,-5.9 9.8,0 19.1,2 27.9,6 l -5.8,13.4 c -9,-3.7 -16.6,-5.6 -22.8,-5.6 -9.4,0 -14.1,2.7 -14.1,8 0,2.6 1.2,4.8 3.7,6.7 2.4,1.8 7.8,4.3 16,7.5 6.9,2.7 11.9,5.1 15.1,7.3 3.1,2.2 5.4,4.8 7,7.7 1.5,2.8 2.3,6.3 2.3,10.4 z" />
  </g>
  <g
     id="g3876">
    <path
       d="M 203,397.7 C 111.8,389.6 40,312.7 40,219.4 40,126.1 111.8,49.3 203,41.2 V 21.1 c -102.3,8.2 -183,94 -183,198.4 0,104.4 80.7,190.2 183,198.4 z"
       id="path3841"
       inkscape:connector-curvature="0"
       style="fill:#96ca4b;stroke:#96ca4b;stroke-width:6" />
    <path
       d="m 235,21.1 v 20.1 c 91.2,8.1 163,85 163,178.3 0,93.3 -71.8,170.2 -163,178.3 v 20.1 C 337.3,409.7 418,323.9 418,219.5 418,115.1 337.3,29.3 235,21.1 Z"
       id="path3843"
       inkscape:connector-curvature="0"
       style="fill:#5f7fbf;stroke:#5f7fbf;stroke-width:6" />
  </g>
  <!-- this is waaay too small -->
  <g
     transform="matrix(12.675084,0,0,12.675084,-2303.3417,-3809.9873)"
     id="g3857">
    <g
       transform="translate(190,320)"
       id="g3855">
      <path
         d="M 0,0 H 18 V 6 H 9 V 7 H 5 V 6 H 0 Z M 1,5 H 3 V 2 H 4 V 5 H 5 V 1 H 1 Z M 6,1 V 6 H 8 V 5 h 2 V 1 Z M 8,2 H 9 V 4 H 8 Z m 3,-1 v 4 h 2 V 2 h 1 v 3 h 1 V 2 h 1 v 3 h 1 V 1 Z"
         id="path3847"
         inkscape:connector-curvature="0"
         style="fill:#cb3837" />
      <polygon
         points="4,5 5,5 5,1 1,1 1,5 3,5 3,2 4,2 "
         id="polygon3849"
         style="fill:#ffffff" />
      <path
         d="M 6,1 V 6 H 8 V 5 h 2 V 1 Z M 9,4 H 8 V 2 h 1 z"
         id="path3851"
         inkscape:connector-curvature="0"
         style="fill:#ffffff" />
      <polygon
         points="11,1 11,5 13,5 13,2 14,2 14,5 15,5 15,2 16,2 16,5 17,5 17,1 "
         id="polygon3853"
         style="fill:#ffffff" />
    </g>
  </g>
</svg>

<?xml version="1.0" encoding="UTF-8" standalone="no"?>
<!--
The CLJS logo is released under a Creative Commons CC0 license: https://creativecommons.org/publicdomain/zero/1.0/
For more information about the logo, please see: https://github.com/cljs/logo
-->
<svg width="438px" height="438px" viewBox="0 0 438 438" version="1.1" xmlns="http://www.w3.org/2000/svg"
     xmlns:xlink="http://www.w3.org/1999/xlink">
    <circle fill="#FFFFFF" cx="219" cy="219" r="219"></circle>
    <g transform="translate(20.000000, 21.000000)">
        <g transform="translate(69.000000, 131.000000)">
            <path fill="#96CA4B"
                  d="M39,119.6 C26.3,119.6 16.7,115.9 10.1,108.5 C3.5,101.1 0.2,90.5 0.2,76.7 C0.2,62.6 3.6,51.8 10.5,44.2 C17.4,36.6 27.3,32.8 40.4,32.8 C49.2,32.8 57.2,34.4 64.2,37.7 L58.8,52 C51.3,49.1 45.1,47.6 40.2,47.6 C25.7,47.6 18.5,57.2 18.5,76.4 C18.5,85.8 20.3,92.8 23.9,97.6 C27.5,102.3 32.8,104.7 39.8,104.7 C47.7,104.7 55.2,102.7 62.3,98.8 L62.3,114.3 C59.1,116.2 55.7,117.5 52.1,118.3 C48.5,119.2 44.1,119.6 39,119.6 L39,119.6 Z"></path>
            <path fill="#96CA4B" d="M111.4,118.1 L93.6,118.1 L93.6,0.3 L111.4,0.3 L111.4,118.1 L111.4,118.1 Z"></path>
            <path fill="#5F7FBF"
                  d="M139.9,155.3 C134.6,155.3 130.1,154.7 126.6,153.4 L126.6,139.3 C130,140.2 133.5,140.7 137.1,140.7 C144.7,140.7 148.5,136.4 148.5,127.8 L148.5,34.3 L166.3,34.3 L166.3,129 C166.3,137.6 164,144.2 159.5,148.6 C154.9,153.1 148.4,155.3 139.9,155.3 L139.9,155.3 Z M147.4,12.2 C147.4,9 148.3,6.6 150,4.9 C151.7,3.2 154.2,2.3 157.5,2.3 C160.6,2.3 163.1,3.2 164.8,4.9 C166.5,6.6 167.4,9.1 167.4,12.2 C167.4,15.2 166.5,17.6 164.8,19.4 C163.1,21.1 160.6,22 157.5,22 C154.3,22 151.8,21.1 150,19.4 C148.2,17.6 147.4,15.2 147.4,12.2 L147.4,12.2 Z"></path>
            <path fill="#5F7FBF"
                  d="M259.5,94.3 C259.5,102.5 256.5,108.7 250.6,113.1 C244.6,117.5 236.1,119.6 225,119.6 C213.8,119.6 204.9,117.9 198.1,114.5 L198.1,99.1 C207.9,103.6 217.1,105.9 225.6,105.9 C236.5,105.9 242,102.6 242,96 C242,93.9 241.4,92.1 240.2,90.7 C239,89.3 237,87.8 234.2,86.3 C231.4,84.8 227.6,83.1 222.6,81.2 C213,77.5 206.4,73.7 203,70 C199.6,66.3 197.9,61.4 197.9,55.5 C197.9,48.3 200.8,42.8 206.6,38.8 C212.4,34.8 220.2,32.9 230.2,32.9 C240,32.9 249.3,34.9 258.1,38.9 L252.3,52.3 C243.3,48.6 235.7,46.7 229.5,46.7 C220.1,46.7 215.4,49.4 215.4,54.7 C215.4,57.3 216.6,59.5 219.1,61.4 C221.5,63.2 226.9,65.7 235.1,68.9 C242,71.6 247,74 250.2,76.2 C253.3,78.4 255.6,81 257.2,83.9 C258.7,86.7 259.5,90.2 259.5,94.3 L259.5,94.3 Z"></path>
        </g>
        <path stroke="#96CA4B" stroke-width="6" fill="#96CA4B"
              d="M183,376.7 C91.8,368.6 20,291.7 20,198.4 C20,105.1 91.8,28.3 183,20.2 L183,0.1 C80.7,8.3 0,94.1 0,198.5 C0,302.9 80.7,388.7 183,396.9 L183,376.7 L183,376.7 Z"></path>
        <path stroke="#5F7FBF" stroke-width="6" fill="#5F7FBF"
              d="M215,0.1 L215,20.2 C306.2,28.3 378,105.2 378,198.5 C378,291.8 306.2,368.7 215,376.8 L215,396.9 C317.3,388.7 398,302.9 398,198.5 C398,94.1 317.3,8.3 215,0.1 L215,0.1 Z"></path>

    </g>
    <!-- this is waaay too small -->
    <g transform="translate(20.000000, 21.000000)">
        <g transform="translate(190.000000, 320.000000)">
            <path fill="#CB3837"
                  d="M0,0h18v6H9v1H5V6H0V0z M1,5h2V2h1v3h1V1H1V5z M6,1v5h2V5h2V1H6z M8,2h1v2H8V2z M11,1v4h2V2h1v3h1V2h1v3h1V1H11z"/>
            <polygon fill="#FFFFFF" points="1,5 3,5 3,2 4,2 4,5 5,5 5,1 1,1 "/>
            <path fill="#FFFFFF" d="M6,1v5h2V5h2V1H6z M9,4H8V2h1V4z"/>
            <polygon fill="#FFFFFF" points="11,1 11,5 13,5 13,2 14,2 14,5 15,5 15,2 16,2 16,5 17,5 17,1 "/>
        </g>
    </g>

</svg>
